src/img/instagram-roxo.svg

<svg width="20" height="21" viewBox="0 0 20 21" fill="none" xmlns="http://www.w3.org/2000/svg">
<path d="M5.8 0.5H14.2C17.4 0.5 20 3.1 20 6.3V14.7C20 16.2383 19.3889 17.7135 18.3012 18.8012C17.2135 19.8889 15.7383 20.5 14.2 20.5H5.8C2.6 20.5 0 17.9 0 14.7V6.3C0 4.76174 0.61107 3.28649 1.69878 2.19878C2.78649 1.11107 4.26174 0.5 5.8 0.5ZM5.6 2.5C4.64522 2.5 3.72955 2.87928 3.05442 3.55442C2.37928 4.22955 2 5.14522 2 6.1V14.9C2 16.89 3.61 18.5 5.6 18.5H14.4C15.3548 18.5 16.2705 18.1207 16.9456 17.4456C17.6207 16.7705 18 15.8548 18 14.9V6.1C18 4.11 16.39 2.5 14.4 2.5H5.6ZM15.25 4C15.5815 4 15.8995 4.1317 16.1339 4.36612C16.3683 4.60054 16.5 4.91848 16.5 5.25C16.5 5.58152 16.3683 5.89946 16.1339 6.13388C15.8995 6.3683 15.5815 6.5 15.25 6.5C14.9185 6.5 14.6005 6.3683 14.3661 6.13388C14.1317 5.89946 14 5.58152 14 5.25C14 4.91848 14.1317 4.60054 14.3661 4.36612C14.6005 4.1317 14.9185 4 15.25 4ZM10 5.5C11.3261 5.5 12.5979 6.02678 13.5355 6.96447C14.4732 7.90215 15 9.17392 15 10.5C15 11.8261 14.4732 13.0979 13.5355 14.0355C12.5979 14.9732 11.3261 15.5 10 15.5C8.67392 15.5 7.40215 14.9732 6.46447 14.0355C5.52678 13.0979 5 11.8261 5 10.5C5 9.17392 5.52678 7.90215 6.46447 6.96447C7.40215 6.02678 8.67392 5.5 10 5.5ZM10 7.5C9.20435 7.5 8.44129 7.81607 7.87868 8.37868C7.31607 8.94129 7 9.70435 7 10.5C7 11.2956 7.31607 12.0587 7.87868 12.6213C8.44129 13.1839 9.20435 13.5 10 13.5C10.7956 13.5 11.5587 13.1839 12.1213 12.6213C12.6839 12.0587 13 11.2956 13 10.5C13 9.70435 12.6839 8.94129 12.1213 8.37868C11.5587 7.81607 10.7956 7.5 10 7.5Z" fill="#342840"/>
</svg>

<svg width="20" height="21" fill="none" xmlns="http://www.w3.org/2000/svg"><path d="M5.8.5h8.4C17.4.5 20 3.1 20 6.3v8.4a5.8 5.8 0 0 1-5.8 5.8H5.8c-3.2 0-5.8-2.6-5.8-5.8V6.3A5.8 5.8 0 0 1 5.8.5zm-.2 2A3.6 3.6 0 0 0 2 6.1v8.8c0 1.99 1.61 3.6 3.6 3.6h8.8a3.6 3.6 0 0 0 3.6-3.6V6.1c0-1.99-1.61-3.6-3.6-3.6H5.6zM15.25 4a1.25 1.25 0 1 1 0 2.5 1.25 1.25 0 0 1 0-2.5zM10 5.5a5 5 0 1 1 0 10 5 5 0 0 1 0-10zm0 2a3 3 0 1 0 0 6 3 3 0 0 0 0-6z" fill="#342840"/></svg>
